svgs/google_chrome_dev.svg

<svg width="24" height="24" viewBox="0 0 24 24" fill="none" xmlns="http://www.w3.org/2000/svg">
<path fill-rule="evenodd" clip-rule="evenodd" d="M6.39678 10.6332C6.69873 9.50328 7.36546 8.50457 8.29355 7.79168C9.22109 7.07934 10.3577 6.69287 11.5277 6.69176H19.9968C19.1443 5.32881 17.976 4.19163 16.5897 3.37698C15.2039 2.56233 13.6413 2.09467 12.036 2.01292C10.4306 1.93118 8.82906 2.23813 7.36713 2.90821C5.90576 3.57772 4.62734 4.59034 3.64142 5.85986L6.39678 10.6332ZM10.1544 21.8998L10.1469 21.9127C8.55434 21.693 7.03792 21.0919 5.72669 20.161C4.41546 19.2302 3.34835 17.9968 2.616 16.5649C2.13132 15.6183 1.80276 14.6037 1.63902 13.56H21.417C21.2008 14.9425 20.6956 16.2669 19.9328 17.4457C19.0592 18.7948 17.8731 19.9131 16.4756 20.706C15.0777 21.499 13.509 21.9427 11.903 22L11.911 21.9862C11.7838 21.991 11.656 21.9935 11.5277 21.9935C11.0618 21.9935 10.6033 21.9616 10.1544 21.8998ZM1.51807 12L1.5183 11.9389C1.52998 10.3307 1.9298 8.74924 2.68328 7.32846L5.37998 12H1.51807ZM7.77418 12C7.77932 9.93133 9.45781 8.25601 11.5277 8.25601C13.5976 8.25601 15.2761 9.93133 15.2812 12H7.77418ZM21.5372 12C21.5353 10.7191 21.2869 9.44783 20.8025 8.25601H15.294C16.1197 9.0829 16.6497 10.16 16.8009 11.3194C16.8304 11.5461 16.8451 11.7734 16.8453 12H21.5372ZM7.51807 15V18.58H8.77807C9.1314 18.58 9.43473 18.51 9.68807 18.37C9.9414 18.2267 10.1364 18.0217 10.2731 17.755C10.4097 17.4883 10.4781 17.1667 10.4781 16.79C10.4781 16.4133 10.4114 16.0917 10.2781 15.825C10.1447 15.5583 9.9514 15.355 9.69807 15.215C9.44473 15.0717 9.13807 15 8.77807 15H7.51807ZM8.72307 17.97H8.14807V15.61H8.72307C8.9564 15.61 9.15474 15.6483 9.31807 15.725C9.48474 15.7983 9.6114 15.9217 9.69807 16.095C9.78807 16.2683 9.83307 16.5 9.83307 16.79C9.83307 17.08 9.78807 17.3117 9.69807 17.485C9.6114 17.6583 9.48474 17.7833 9.31807 17.86C9.15474 17.9333 8.9564 17.97 8.72307 17.97ZM11.3556 18.48C11.5456 18.6 11.7706 18.66 12.0306 18.66C12.3572 18.66 12.6206 18.5883 12.8206 18.445C13.0206 18.3017 13.1472 18.125 13.2006 17.915L12.6706 17.76C12.6372 17.8633 12.5689 17.95 12.4656 18.02C12.3622 18.09 12.2289 18.125 12.0656 18.125C11.9422 18.125 11.8256 18.0933 11.7156 18.03C11.6089 17.9633 11.5222 17.8667 11.4556 17.74C11.4141 17.6548 11.3861 17.5581 11.3718 17.45H13.2356C13.2422 17.41 13.2472 17.355 13.2506 17.285C13.2539 17.215 13.2556 17.1567 13.2556 17.11C13.2556 16.8533 13.2072 16.6333 13.1106 16.45C13.0139 16.2633 12.8739 16.12 12.6906 16.02C12.5072 15.92 12.2856 15.87 12.0256 15.87C11.7822 15.87 11.5656 15.9317 11.3756 16.055C11.1889 16.175 11.0406 16.34 10.9306 16.55C10.8239 16.76 10.7706 17 10.7706 17.27C10.7706 17.5333 10.8206 17.77 10.9206 17.98C11.0239 18.19 11.1689 18.3567 11.3556 18.48ZM11.3956 16.95C11.4086 16.8966 11.4253 16.8466 11.4456 16.8C11.5056 16.67 11.5906 16.5717 11.7006 16.505C11.8106 16.4383 11.9372 16.405 12.0806 16.405C12.1739 16.405 12.2556 16.42 12.3256 16.45C12.3956 16.4767 12.4522 16.515 12.4956 16.565C12.5422 16.615 12.5772 16.6733 12.6006 16.74C12.6272 16.8067 12.6439 16.8767 12.6506 16.95H11.3956ZM13.3839 15.95L14.3489 18.58H14.9539L15.9289 15.95H15.2839L14.6589 17.735H14.6389L14.0389 15.95H13.3839Z" fill="#FFF1C0"/>
</svg>

<svg xmlns="http://www.w3.org/2000/svg" width="24" height="24" fill="none" viewBox="0 0 24 24"><path fill="#FFF1C0" fill-rule="evenodd" d="M6.397 10.633a5.313 5.313 0 0 1 5.13-3.941h8.47A9.986 9.986 0 0 0 3.64 5.86l2.756 4.773M10.154 21.9l-.007.013a9.996 9.996 0 0 1-8.508-8.353h19.778a9.996 9.996 0 0 1-4.941 7.146A9.99 9.99 0 0 1 11.903 22l.008-.014a10.165 10.165 0 0 1-1.757-.086M1.518 12v-.061a9.995 9.995 0 0 1 1.165-4.61L5.38 12H1.518m6.256 0a3.753 3.753 0 0 1 7.507 0zm13.763 0a9.982 9.982 0 0 0-.735-3.744h-5.508A5.307 5.307 0 0 1 16.845 12zM7.518 15v3.58h1.26c.353 0 .657-.07.91-.21.253-.143.448-.348.585-.615.137-.267.205-.588.205-.965s-.067-.698-.2-.965a1.388 1.388 0 0 0-.58-.61c-.253-.143-.56-.215-.92-.215h-1.26m1.205 2.97h-.575v-2.36h.575c.233 0 .432.038.595.115a.76.76 0 0 1 .38.37c.09.173.135.405.135.695 0 .29-.045.522-.135.695a.784.784 0 0 1-.38.375c-.163.073-.362.11-.595.11m2.633.51c.19.12.415.18.675.18.326 0 .59-.072.79-.215.2-.143.326-.32.38-.53l-.53-.155a.497.497 0 0 1-.205.26.7.7 0 0 1-.4.105.69.69 0 0 1-.35-.095.736.736 0 0 1-.26-.29.94.94 0 0 1-.084-.29h1.864a1.91 1.91 0 0 0 .015-.165 4.32 4.32 0 0 0 .005-.175c0-.257-.049-.477-.145-.66a1.006 1.006 0 0 0-.42-.43c-.184-.1-.405-.15-.665-.15-.244 0-.46.062-.65.185a1.28 1.28 0 0 0-.445.495c-.107.21-.16.45-.16.72 0 .263.05.5.15.71.103.21.248.377.435.5m.04-1.53a.92.92 0 0 1 .05-.15.654.654 0 0 1 .255-.295c.11-.067.236-.1.38-.1a.62.62 0 0 1 .245.045c.07.027.126.065.17.115.046.05.081.108.105.175a.748.748 0 0 1 .05.21h-1.255m1.988-1 .965 2.63h.605l.975-2.63h-.645l-.625 1.785h-.02l-.6-1.785h-.655" clip-rule="evenodd"/></svg>
